static/tag/搜索引擎.svg

<svg viewBox="0 0 1024 1024" xmlns="http://www.w3.org/2000/svg" width="200" height="200"><path d="M390.848 612.704c-123.52 0-223.84-99.968-223.84-223.072 0-123.136 100.32-223.104 223.84-223.104 99.136 0 183.296 64.352 212.704 153.376 7.232 21.92 11.168 45.376 11.168 69.728 0 123.104-100.32 223.072-223.872 223.072m598.56 293.888c-2.944-10.208-8.32-19.264-15.392-27.104A8652.592 8652.592 0 0 0 751.52 657.76c-3.616-3.264-7.424-6.208-11.616-8.672-9.888-5.792-20.896-8.736-32.288-9.248l-4.448.128-25.952-25.632-4.096-3.968c47.968-60.8 76.576-137.472 76.576-220.736C749.696 192.224 588.928 32 390.848 32 192.8 32 32 192.224 32 389.632c0 197.376 160.8 357.6 358.848 357.6 81.856 0 157.344-27.36 217.792-73.472l4.416 4.512 25.664 25.824-.096 2.048c-.032 6.464.832 12.896 2.624 19.104 2.944 10.176 8.288 19.232 15.36 27.072a8705.56 8705.56 0 0 0 222.496 221.76c7.296 6.496 15.552 11.552 24.896 14.592a67.831 67.831 0 0 0 26.304 3.104c8.064-.672 16-2.784 23.296-6.24 23.008-10.848 38.176-34.496 38.4-59.872.064-6.432-.832-12.896-2.592-19.072" fill="#009788"/></svg>

<?xml version="1.0" standalone="no"?><!DOCTYPE svg PUBLIC "-//W3C//DTD SVG 1.1//EN" "http://www.w3.org/Graphics/SVG/1.1/DTD/svg11.dtd"><svg t="1565075908380" class="icon" viewBox="0 0 1024 1024" version="1.1" xmlns="http://www.w3.org/2000/svg" p-id="208378" xmlns:xlink="http://www.w3.org/1999/xlink" width="200" height="200"><defs><style type="text/css"></style></defs><path d="M390.848 612.704C267.328 612.704 167.008 512.736 167.008 389.632 167.008 266.496 267.328 166.528 390.848 166.528 489.984 166.528 574.144 230.88 603.552 319.904 610.784 341.824 614.72 365.28 614.72 389.632 614.72 512.736 514.4 612.704 390.848 612.704M989.408 906.592C986.464 896.384 981.088 887.328 974.016 879.488 901.216 804.256 827.008 730.304 751.52 657.76 747.904 654.496 744.096 651.552 739.904 649.088 730.016 643.296 719.008 640.352 707.616 639.84L703.168 639.968 677.216 614.336 673.12 610.368C721.088 549.568 749.696 472.896 749.696 389.632 749.696 192.224 588.928 32 390.848 32 192.8 32 32 192.224 32 389.632 32 587.008 192.8 747.232 390.848 747.232 472.704 747.232 548.192 719.872 608.64 673.76L613.056 678.272 638.72 704.096 638.624 706.144C638.592 712.608 639.456 719.04 641.248 725.248 644.192 735.424 649.536 744.48 656.608 752.32 729.44 827.584 803.616 901.504 879.104 974.08 886.4 980.576 894.656 985.632 904 988.672 912.448 991.424 921.44 992.48 930.304 991.776 938.368 991.104 946.304 988.992 953.6 985.536 976.608 974.688 991.776 951.04 992 925.664 992.064 919.232 991.168 912.768 989.408 906.592" fill="#009788" p-id="208379"></path></svg>
